assets/images/manufacturing/item-2.svg

<svg width="41" height="49" viewBox="0 0 41 49" fill="none" xmlns="http://www.w3.org/2000/svg">
<path d="M40.0875 47.9609L34.0297 33.5748H39.2017C39.5487 33.5748 39.8294 33.2937 39.8294 32.9471V28.6274C39.8294 28.2808 39.5487 27.9997 39.2017 27.9997H32.6281C32.6462 27.97 32.6674 27.9432 32.6845 27.9127C33.154 27.072 33.1332 26.0805 32.6287 25.2603L26.2776 14.9346C25.6297 13.8812 25.287 12.6705 25.287 11.4335V1.79192C25.287 1.07933 24.7071 0.499756 23.9948 0.499756H16.2786C15.5663 0.499756 14.9864 1.07933 14.9864 1.79192V11.4335C14.9864 12.6705 14.6438 13.8812 13.9959 14.9346L7.64474 25.2603C7.14025 26.0805 7.11941 27.072 7.58896 27.9127C7.60604 27.9432 7.62727 27.97 7.64535 27.9997H1.07172C0.724772 27.9997 0.444025 28.2808 0.444025 28.6274V32.9471C0.444025 33.2937 0.724772 33.5748 1.07172 33.5748H6.24376L0.185959 47.9609C0.0517162 48.2806 0.201284 48.6487 0.521261 48.7829C0.600336 48.8166 0.683089 48.8326 0.764615 48.8326C1.0092 48.8326 1.24213 48.6882 1.34327 48.4482L7.60627 33.5748H32.6672L38.9302 48.4482C39.0313 48.6882 39.2642 48.8326 39.5088 48.8326C39.5903 48.8326 39.6731 48.8166 39.7522 48.7829C40.0722 48.6487 40.2217 48.2806 40.0875 47.9609ZM16.2418 11.4335L16.2786 1.75515L24.0316 1.79192V11.4335C24.0316 12.5409 24.2633 13.6304 24.7068 14.6358H15.5666C16.0101 13.6304 16.2418 12.5409 16.2418 11.4335ZM8.71378 25.918L14.8811 15.8911H25.3924L31.5597 25.918C31.8226 26.3456 31.833 26.8623 31.5885 27.3003C31.3439 27.7383 30.8982 27.9997 30.3962 27.9997H9.87722C9.37519 27.9997 8.92955 27.7383 8.68497 27.3003C8.44039 26.8623 8.45081 26.3456 8.71378 25.918ZM33.0822 32.3194H7.19128C7.19036 32.3194 7.18952 32.3194 7.1886 32.3194H1.69941V29.2551H9.87722H30.3962H38.574V32.3194H33.0848C33.0839 32.3194 33.0831 32.3194 33.0822 32.3194Z" fill="#0029FF"/>
</svg>

<svg width="41" height="49" fill="none" xmlns="http://www.w3.org/2000/svg"><path d="M40.087 47.96L34.03 33.576h5.172a.628.628 0 00.627-.628v-4.32a.628.628 0 00-.627-.627h-6.574c.018-.03.04-.057.056-.087a2.59 2.59 0 00-.055-2.653l-6.351-10.325a6.68 6.68 0 01-.991-3.502V1.793c0-.713-.58-1.292-1.292-1.292h-7.716c-.713 0-1.293.58-1.293 1.292v9.642a6.68 6.68 0 01-.99 3.5L7.645 25.26a2.59 2.59 0 00-.056 2.653c.017.03.038.057.056.087H1.072a.628.628 0 00-.628.627v4.32c0 .347.28.628.628.628h5.172L.186 47.96a.627.627 0 101.157.487l6.263-14.873h25.061l6.263 14.873a.628.628 0 101.157-.487zM16.242 11.435l.037-9.679 7.753.037v9.642c0 1.107.231 2.196.675 3.202h-9.14a7.932 7.932 0 00.675-3.202zM8.714 25.918l6.167-10.027h10.511l6.168 10.027c.263.428.273.944.029 1.382-.245.438-.69.7-1.193.7H9.877a1.35 1.35 0 01-1.192-.7 1.35 1.35 0 01.029-1.382zm24.368 6.401H1.7v-3.064h36.875v3.064h-5.492z" fill="#0029FF"/></svg>
